public/logos/3M.svg

<?xml version="1.0" encoding="UTF-8"?>
<svg xmlns="http://www.w3.org/2000/svg" xmlns:xlink="http://www.w3.org/1999/xlink" width="170.26pt" height="59pt" viewBox="0 0 170.26 59" version="1.1">
<defs>
<clipPath id="clip1">
  <path d="M 156 20 L 170.261719 20 L 170.261719 43 L 156 43 Z M 156 20 "/>
</clipPath>
</defs>
<g id="surface1">
<path style=" stroke:none;fill-rule:nonzero;fill:rgb(69.290161%,71.614075%,71.156311%);fill-opacity:1;" d="M 73.191406 43.5 C 70.328125 43.5 67.339844 42.96875 64.800781 42.332031 L 66.046875 37.355469 C 71.605469 38.742188 76.027344 38.714844 77.867188 37.277344 C 78.308594 36.933594 78.894531 36.292969 78.894531 34.710938 C 78.894531 32.859375 76.917969 31.59375 73.660156 29.730469 C 70.046875 27.660156 65.546875 25.085938 65.855469 19.804688 C 65.988281 17.570312 66.960938 15.726562 68.671875 14.476562 C 73.09375 11.242188 81.1875 13.175781 82.09375 13.40625 L 80.832031 18.382812 C 78.109375 17.695312 73.476562 17.316406 71.699219 18.621094 C 71.371094 18.859375 71.03125 19.222656 70.980469 20.105469 C 70.863281 22.070312 72.878906 23.371094 76.210938 25.277344 C 79.695312 27.269531 84.027344 29.75 84.027344 34.710938 C 84.027344 38.238281 82.394531 40.253906 81.027344 41.324219 C 78.964844 42.933594 76.140625 43.5 73.191406 43.5 "/>
<path style=" stroke:none;fill-rule:nonzero;fill:rgb(69.290161%,71.614075%,71.156311%);fill-opacity:1;" d="M 95.253906 42.621094 L 90.121094 42.621094 L 90.121094 28.0625 C 90.121094 26.082031 87.957031 25.558594 87.519531 25.472656 L 88.421875 20.421875 C 90.785156 20.832031 95.253906 22.957031 95.253906 28.0625 L 95.253906 42.621094 "/>
<path style=" stroke:none;fill-rule:nonzero;fill:rgb(69.290161%,71.614075%,71.156311%);fill-opacity:1;" d="M 109.019531 43.503906 C 103.414062 43.503906 101.039062 37.683594 100.523438 34.238281 L 100.492188 34.046875 L 100.492188 11.1875 L 105.625 11.1875 L 105.625 33.617188 C 105.796875 34.429688 106.738281 38.371094 109.023438 38.371094 C 109.027344 38.371094 109.03125 38.371094 109.035156 38.371094 L 109.058594 43.503906 C 109.046875 43.503906 109.03125 43.503906 109.019531 43.503906 "/>
<g clip-path="url(#clip1)" clip-rule="nonzero">
<path style=" stroke:none;fill-rule:nonzero;fill:rgb(69.290161%,71.614075%,71.156311%);fill-opacity:1;" d="M 169.726562 20.398438 C 167.507812 20.628906 164.550781 21.378906 162.078125 22.878906 L 162.078125 21.238281 L 156.945312 21.238281 L 156.945312 42.621094 L 162.078125 42.621094 L 162.078125 30.632812 C 162.078125 26.46875 170.1875 25.511719 170.261719 25.5 L 169.726562 20.398438 "/>
</g>
<path style=" stroke:none;fill-rule:nonzero;fill:rgb(69.290161%,71.614075%,71.156311%);fill-opacity:1;" d="M 110.328125 21.238281 L 115.675781 21.238281 L 120.738281 36.492188 C 122.234375 35.636719 125.300781 21.238281 125.300781 21.238281 L 130.429688 21.238281 C 130.429688 21.238281 125.941406 42.621094 123.589844 42.621094 C 121.234375 42.621094 117.171875 42.621094 117.171875 42.621094 L 110.328125 21.238281 "/>
<path style=" stroke:none;fill-rule:nonzero;fill:rgb(69.290161%,71.614075%,71.156311%);fill-opacity:1;" d="M 143.035156 25.703125 C 145.027344 25.703125 147.035156 26.914062 147.453125 29.578125 L 138.222656 29.578125 C 138.496094 28.59375 138.953125 27.757812 139.589844 27.117188 C 140.496094 26.207031 141.71875 25.703125 143.035156 25.703125 Z M 152.671875 30.632812 C 152.671875 24.027344 147.824219 20.570312 143.035156 20.570312 C 140.34375 20.570312 137.828125 21.609375 135.949219 23.5 C 134.507812 24.953125 132.78125 27.597656 132.78125 31.929688 C 132.78125 36.523438 134.265625 39.882812 137.1875 41.910156 C 139.359375 43.417969 141.960938 43.898438 144.390625 43.898438 C 148.261719 43.898438 151.089844 42.839844 151.671875 42.621094 L 150.855469 37.492188 C 149.09375 38.148438 143.046875 39.726562 140.113281 37.695312 C 138.789062 36.773438 138.078125 35.160156 137.945312 32.785156 L 152.457031 32.785156 L 152.671875 30.632812 "/>
<path style=" stroke:none;fill-rule:nonzero;fill:rgb(69.290161%,71.614075%,71.156311%);fill-opacity:1;" d="M 95.574219 14.761719 C 95.574219 12.871094 94.042969 11.339844 92.15625 11.339844 C 90.265625 11.339844 88.734375 12.871094 88.734375 14.761719 C 88.734375 16.652344 90.265625 18.183594 92.15625 18.183594 C 94.042969 18.183594 95.574219 16.652344 95.574219 14.761719 "/>
<path style=" stroke:none;fill-rule:nonzero;fill:rgb(69.290161%,71.614075%,71.156311%);fill-opacity:1;" d="M 48.847656 48.851562 L 48.910156 48.914062 C 48.109375 49.695312 47.160156 50.238281 46.15625 50.542969 C 41.289062 54.367188 35.386719 56.25 29.5 56.203125 C 23.613281 56.25 17.710938 54.367188 12.84375 50.542969 C 11.839844 50.238281 10.890625 49.695312 10.089844 48.914062 L 10.152344 48.851562 C 9.335938 48.03125 8.769531 47.058594 8.457031 46.023438 C 4.632812 41.15625 2.75 35.253906 2.796875 29.367188 C 2.75 23.476562 4.632812 17.578125 8.457031 12.710938 C 8.742188 11.761719 9.246094 10.863281 9.957031 10.09375 L 10.015625 10.152344 C 10.835938 9.335938 11.808594 8.769531 12.84375 8.457031 C 17.710938 4.632812 23.613281 2.75 29.5 2.796875 C 35.386719 2.75 41.289062 4.632812 46.15625 8.457031 C 47.191406 8.769531 48.164062 9.335938 48.984375 10.152344 L 49.042969 10.09375 C 49.753906 10.863281 50.257812 11.761719 50.542969 12.710938 C 54.367188 17.578125 56.25 23.476562 56.203125 29.367188 C 56.25 35.253906 54.367188 41.15625 50.542969 46.023438 C 50.230469 47.058594 49.664062 48.03125 48.847656 48.851562 Z M 59 29.367188 C 59.050781 22.542969 56.753906 15.703125 52.101562 10.183594 C 51.332031 9.851562 50.609375 9.378906 49.980469 8.75 L 49.921875 8.804688 C 49.394531 8.226562 48.976562 7.585938 48.679688 6.898438 C 43.164062 2.246094 36.324219 -0.0507812 29.5 0 C 22.675781 -0.0507812 15.835938 2.246094 10.320312 6.898438 C 10.023438 7.585938 9.605469 8.230469 9.078125 8.804688 L 9.019531 8.75 C 8.390625 9.378906 7.667969 9.851562 6.898438 10.183594 C 2.246094 15.703125 -0.0507812 22.542969 0 29.367188 C -0.0507812 36.191406 2.246094 43.03125 6.898438 48.546875 C 7.640625 48.867188 8.335938 49.324219 8.945312 49.917969 L 8.882812 49.980469 C 9.511719 50.609375 9.988281 51.332031 10.320312 52.101562 C 15.835938 56.753906 22.675781 59.050781 29.5 59 C 36.324219 59.050781 43.164062 56.753906 48.679688 52.101562 C 49.011719 51.332031 49.488281 50.609375 50.117188 49.980469 L 50.054688 49.917969 C 50.664062 49.324219 51.359375 48.867188 52.101562 48.546875 C 56.753906 43.03125 59.050781 36.191406 59 29.367188 "/>
<path style=" stroke:none;fill-rule:nonzero;fill:rgb(69.290161%,71.614075%,71.156311%);fill-opacity:1;" d="M 45.960938 45.960938 L 46.015625 46.015625 C 45.332031 46.679688 44.523438 47.140625 43.667969 47.402344 C 39.53125 50.652344 34.507812 52.257812 29.5 52.214844 C 24.492188 52.257812 19.46875 50.652344 15.332031 47.402344 C 14.476562 47.140625 13.667969 46.679688 12.984375 46.015625 L 13.039062 45.960938 C 12.34375 45.265625 11.863281 44.4375 11.597656 43.554688 C 8.347656 39.414062 6.742188 34.394531 6.785156 29.386719 C 6.742188 24.378906 8.347656 19.355469 11.597656 15.214844 C 11.84375 14.410156 12.269531 13.648438 12.875 12.988281 L 12.925781 13.039062 C 13.621094 12.34375 14.449219 11.863281 15.332031 11.597656 C 19.46875 8.347656 24.492188 6.742188 29.5 6.785156 C 34.507812 6.742188 39.53125 8.347656 43.667969 11.597656 C 44.550781 11.863281 45.378906 12.34375 46.074219 13.039062 L 46.125 12.988281 C 46.730469 13.648438 47.15625 14.410156 47.402344 15.214844 C 50.652344 19.355469 52.257812 24.378906 52.214844 29.386719 C 52.257812 34.394531 50.652344 39.414062 47.402344 43.554688 C 47.136719 44.4375 46.65625 45.265625 45.960938 45.960938 Z M 54.59375 29.386719 C 54.640625 23.582031 52.683594 17.761719 48.726562 13.070312 C 48.074219 12.785156 47.457031 12.382812 46.921875 11.847656 L 46.875 11.894531 C 46.421875 11.40625 46.070312 10.855469 45.816406 10.273438 C 41.121094 6.316406 35.304688 4.359375 29.5 4.40625 C 23.695312 4.359375 17.878906 6.316406 13.183594 10.273438 C 12.929688 10.855469 12.578125 11.40625 12.125 11.894531 L 12.078125 11.847656 C 11.542969 12.382812 10.925781 12.785156 10.273438 13.070312 C 6.3125 17.761719 4.363281 23.582031 4.40625 29.386719 C 4.363281 35.191406 6.3125 41.011719 10.273438 45.703125 C 10.902344 45.976562 11.496094 46.363281 12.015625 46.867188 L 11.960938 46.921875 C 12.496094 47.457031 12.902344 48.074219 13.183594 48.726562 C 17.878906 52.6875 23.695312 54.636719 29.5 54.59375 C 35.304688 54.636719 41.121094 52.6875 45.816406 48.726562 C 46.097656 48.074219 46.503906 47.457031 47.039062 46.921875 L 46.984375 46.867188 C 47.503906 46.363281 48.097656 45.976562 48.726562 45.703125 C 52.683594 41.011719 54.640625 35.191406 54.59375 29.386719 "/>
<path style=" stroke:none;fill-rule:nonzero;fill:rgb(69.290161%,71.614075%,71.156311%);fill-opacity:1;" d="M 43.21875 43.222656 L 43.265625 43.269531 C 42.695312 43.820312 42.023438 44.207031 41.3125 44.421875 C 37.859375 47.132812 33.675781 48.46875 29.5 48.433594 C 25.324219 48.46875 21.140625 47.132812 17.6875 44.421875 C 16.976562 44.207031 16.304688 43.820312 15.734375 43.269531 L 15.78125 43.222656 C 15.199219 42.644531 14.800781 41.953125 14.578125 41.21875 C 11.867188 37.765625 10.53125 33.582031 10.566406 29.40625 C 10.53125 25.230469 11.867188 21.042969 14.578125 17.59375 C 14.78125 16.921875 15.136719 16.285156 15.640625 15.738281 L 15.683594 15.78125 C 16.261719 15.199219 16.953125 14.800781 17.6875 14.578125 C 21.140625 11.867188 25.324219 10.53125 29.5 10.566406 C 33.675781 10.53125 37.859375 11.867188 41.3125 14.578125 C 42.046875 14.800781 42.738281 15.199219 43.316406 15.78125 L 43.359375 15.738281 C 43.863281 16.285156 44.21875 16.921875 44.421875 17.59375 C 47.132812 21.042969 48.46875 25.230469 48.433594 29.40625 C 48.46875 33.582031 47.132812 37.765625 44.421875 41.21875 C 44.199219 41.953125 43.800781 42.644531 43.21875 43.222656 Z M 50.417969 29.40625 C 50.457031 24.566406 48.828125 19.714844 45.527344 15.800781 C 44.980469 15.566406 44.46875 15.230469 44.023438 14.785156 L 43.984375 14.824219 C 43.605469 14.414062 43.3125 13.957031 43.101562 13.472656 C 39.1875 10.171875 34.339844 8.542969 29.5 8.582031 C 24.660156 8.542969 19.8125 10.171875 15.898438 13.472656 C 15.6875 13.957031 15.394531 14.414062 15.015625 14.824219 L 14.976562 14.785156 C 14.53125 15.230469 14.019531 15.566406 13.472656 15.800781 C 10.171875 19.714844 8.542969 24.566406 8.582031 29.40625 C 8.542969 34.246094 10.171875 39.09375 13.472656 43.007812 C 13.996094 43.234375 14.492188 43.558594 14.925781 43.976562 L 14.878906 44.023438 C 15.324219 44.46875 15.664062 44.980469 15.898438 45.527344 C 19.8125 48.828125 24.660156 50.457031 29.5 50.417969 C 34.339844 50.457031 39.1875 48.828125 43.101562 45.527344 C 43.335938 44.980469 43.675781 44.46875 44.121094 44.023438 L 44.074219 43.976562 C 44.507812 43.558594 45.003906 43.234375 45.527344 43.007812 C 48.828125 39.09375 50.457031 34.246094 50.417969 29.40625 "/>
</g>
</svg>

<svg xmlns="http://www.w3.org/2000/svg" width="227.013" height="59pt" viewBox="0 0 170.26 59"><defs><clipPath id="a"><path d="M156 20h14.262v23H156Zm0 0"/></clipPath></defs><path d="M73.191 43.5c-2.863 0-5.851-.531-8.39-1.168l1.246-4.977c5.558 1.387 9.98 1.36 11.82-.078.442-.343 1.028-.984 1.028-2.566 0-1.852-1.977-3.117-5.235-4.98-3.613-2.07-8.113-4.645-7.805-9.926.133-2.235 1.106-4.078 2.817-5.328 4.422-3.235 12.516-1.301 13.422-1.07l-1.262 4.976c-2.723-.688-7.355-1.067-9.133.238-.328.238-.668.602-.719 1.484-.117 1.965 1.899 3.266 5.23 5.172 3.485 1.993 7.817 4.473 7.817 9.434 0 3.527-1.632 5.543-3 6.613-2.062 1.61-4.886 2.176-7.836 2.176M95.254 42.621H90.12V28.062c0-1.98-2.164-2.503-2.601-2.59l.902-5.05c2.363.41 6.832 2.535 6.832 7.64zM109.02 43.504c-5.606 0-7.98-5.82-8.497-9.266l-.03-.191v-22.86h5.132v22.43c.172.813 1.113 4.754 3.398 4.754h.012l.024 5.133z" style="stroke:none;fill-rule:nonzero;fill:#b1b7b5;fill-opacity:1"/><g clip-path="url(#a)"><path d="M169.727 20.398c-2.22.23-5.176.98-7.649 2.48v-1.64h-5.133v21.383h5.133V30.633c0-4.164 8.11-5.121 8.184-5.133z" style="stroke:none;fill-rule:nonzero;fill:#b1b7b5;fill-opacity:1"/></g><path d="M110.328 21.238h5.348l5.062 15.254c1.496-.855 4.563-15.254 4.563-15.254h5.129s-4.489 21.383-6.84 21.383h-6.418zM143.035 25.703c1.992 0 4 1.211 4.418 3.875h-9.23c.273-.984.73-1.82 1.367-2.46a4.82 4.82 0 0 1 3.445-1.415m9.637 4.93c0-6.606-4.848-10.063-9.637-10.063-2.691 0-5.207 1.04-7.086 2.93-1.441 1.453-3.168 4.098-3.168 8.43 0 4.593 1.485 7.953 4.406 9.98 2.172 1.508 4.774 1.988 7.204 1.988 3.87 0 6.699-1.058 7.28-1.277l-.816-5.129c-1.761.656-7.808 2.235-10.742.203-1.324-.922-2.035-2.535-2.168-4.91h14.512zM95.574 14.762a3.42 3.42 0 1 0-6.84 0 3.42 3.42 0 1 0 6.84 0M48.848 48.852l.062.062a6.74 6.74 0 0 1-2.754 1.629c-4.867 3.824-10.77 5.707-16.656 5.66-5.887.047-11.79-1.836-16.656-5.66a6.74 6.74 0 0 1-2.754-1.629l.062-.062a6.8 6.8 0 0 1-1.695-2.829c-3.824-4.867-5.707-10.77-5.66-16.656-.047-5.89 1.836-11.789 5.66-16.656.285-.95.79-1.848 1.5-2.617l.059.058a6.8 6.8 0 0 1 2.828-1.695C17.71 4.633 23.614 2.75 29.5 2.797c5.887-.047 11.79 1.836 16.656 5.66a6.8 6.8 0 0 1 2.828 1.695l.059-.058a6.7 6.7 0 0 1 1.5 2.617c3.824 4.867 5.707 10.766 5.66 16.656.047 5.887-1.836 11.79-5.66 16.656a6.8 6.8 0 0 1-1.695 2.829M59 29.367c.05-6.824-2.246-13.664-6.898-19.183A6.8 6.8 0 0 1 49.98 8.75l-.058.055a6.9 6.9 0 0 1-1.242-1.907C43.164 2.246 36.324-.05 29.5 0c-6.824-.05-13.664 2.246-19.18 6.898a6.8 6.8 0 0 1-1.242 1.907L9.02 8.75a6.8 6.8 0 0 1-2.122 1.434C2.246 15.704-.05 22.543 0 29.367c-.05 6.824 2.246 13.664 6.898 19.18.743.32 1.438.777 2.047 1.371l-.062.062a6.8 6.8 0 0 1 1.437 2.122C15.836 56.754 22.676 59.05 29.5 59c6.824.05 13.664-2.246 19.18-6.898a6.8 6.8 0 0 1 1.437-2.122l-.062-.062a6.8 6.8 0 0 1 2.047-1.371C56.754 43.03 59.05 36.19 59 29.367" style="stroke:none;fill-rule:nonzero;fill:#b1b7b5;fill-opacity:1"/><path d="m45.96 45.96.056.056a5.8 5.8 0 0 1-2.348 1.386A22.6 22.6 0 0 1 29.5 52.215a22.6 22.6 0 0 1-14.168-4.813 5.8 5.8 0 0 1-2.348-1.386l.055-.055a5.7 5.7 0 0 1-1.441-2.406 22.6 22.6 0 0 1-4.813-14.168 22.6 22.6 0 0 1 4.813-14.172 5.8 5.8 0 0 1 1.277-2.227l.05.051a5.7 5.7 0 0 1 2.407-1.441A22.6 22.6 0 0 1 29.5 6.785a22.6 22.6 0 0 1 14.168 4.813c.883.265 1.71.746 2.406 1.441l.051-.05a5.8 5.8 0 0 1 1.277 2.226 22.6 22.6 0 0 1 4.813 14.172 22.6 22.6 0 0 1-4.813 14.168 5.7 5.7 0 0 1-1.441 2.406m8.634-16.573c.047-5.805-1.91-11.625-5.867-16.317a5.9 5.9 0 0 1-1.805-1.222l-.047.047a5.8 5.8 0 0 1-1.059-1.622C41.121 6.316 35.305 4.36 29.5 4.406c-5.805-.047-11.621 1.91-16.316 5.867a5.8 5.8 0 0 1-1.059 1.622l-.047-.047a5.9 5.9 0 0 1-1.805 1.222c-3.96 4.692-5.91 10.512-5.867 16.317-.043 5.804 1.907 11.625 5.867 16.316.63.274 1.223.66 1.743 1.164l-.055.055a5.8 5.8 0 0 1 1.223 1.805c4.695 3.96 10.511 5.91 16.316 5.867 5.805.043 11.621-1.907 16.316-5.867a5.8 5.8 0 0 1 1.223-1.805l-.055-.055a5.8 5.8 0 0 1 1.743-1.164c3.957-4.691 5.914-10.512 5.867-16.316" style="stroke:none;fill-rule:nonzero;fill:#b1b7b5;fill-opacity:1"/><path d="m43.219 43.223.047.047c-.57.55-1.243.937-1.953 1.152A18.84 18.84 0 0 1 29.5 48.434c-4.176.035-8.36-1.301-11.812-4.012a4.8 4.8 0 0 1-1.954-1.152l.047-.047a4.76 4.76 0 0 1-1.203-2.004 18.84 18.84 0 0 1-4.012-11.813 18.84 18.84 0 0 1 4.012-11.812 4.8 4.8 0 0 1 1.063-1.856l.043.043a4.76 4.76 0 0 1 2.004-1.203A18.84 18.84 0 0 1 29.5 10.566c4.176-.035 8.36 1.301 11.813 4.012a4.76 4.76 0 0 1 2.003 1.203l.043-.043c.504.547.86 1.184 1.063 1.856a18.84 18.84 0 0 1 4.012 11.812c.035 4.176-1.301 8.36-4.012 11.813a4.76 4.76 0 0 1-1.203 2.004m7.199-13.817c.039-4.84-1.59-9.691-4.89-13.605a4.8 4.8 0 0 1-1.505-1.016l-.039.04a4.8 4.8 0 0 1-.882-1.352A20.8 20.8 0 0 0 29.5 8.582a20.8 20.8 0 0 0-13.602 4.89c-.21.485-.503.942-.882 1.352l-.04-.039a4.8 4.8 0 0 1-1.503 1.016c-3.301 3.914-4.93 8.765-4.891 13.605a20.8 20.8 0 0 0 4.89 13.602 4.9 4.9 0 0 1 1.454.969l-.047.046c.445.446.785.957 1.02 1.504A20.8 20.8 0 0 0 29.5 50.418c4.84.039 9.688-1.59 13.602-4.89a4.8 4.8 0 0 1 1.02-1.505l-.048-.046a4.9 4.9 0 0 1 1.453-.97 20.8 20.8 0 0 0 4.891-13.6" style="stroke:none;fill-rule:nonzero;fill:#b1b7b5;fill-opacity:1"/></svg>
